app/themes/uggwc_pro/assets/images/thema/Sozialarbeit.svg

<svg width="16" height="16" viewBox="0 0 16 16" fill="none" xmlns="http://www.w3.org/2000/svg">
<g clip-path="url(#clip0_111_213)">
<path d="M4.5687 3.71565C4.5687 4.66194 3.79934 5.4313 2.85305 5.4313C1.90676 5.4313 1.1374 4.66194 1.1374 3.71565C1.1374 2.76936 1.90676 2 2.85305 2C3.79934 2 4.5687 2.76936 4.5687 3.71565ZM0.116054 8.25676C0.207198 7.14427 1.1374 6.28912 2.25257 6.28912H3.45353C4.17732 6.28912 4.82069 6.64834 5.20939 7.20324C5.13701 7.25418 5.06999 7.31047 5.00834 7.37213L3.29269 9.08778C2.70561 9.67485 2.70561 10.6238 3.29269 11.2109L4.5687 12.4869V14.4385C4.5687 15.1488 3.99235 15.7252 3.28196 15.7252H2.42414C1.71375 15.7252 1.1374 15.1488 1.1374 14.4385V11.3369C0.427016 11.0822 -0.0608719 10.3772 0.00614569 9.57835L0.116054 8.25676ZM14.8626 3.71565C14.8626 4.66194 14.0932 5.4313 13.1469 5.4313C12.2007 5.4313 11.4313 4.66194 11.4313 3.71565C11.4313 2.76936 12.2007 2 13.1469 2C14.0932 2 14.8626 2.76936 14.8626 3.71565ZM10.9917 7.37213C10.93 7.31047 10.8603 7.25418 10.7906 7.20324C11.1793 6.64834 11.8254 6.28912 12.5465 6.28912H13.7474C14.8626 6.28912 15.7928 7.14427 15.8839 8.25676L15.9939 9.57835C16.0609 10.3772 15.573 11.0822 14.8626 11.3369V14.4385C14.8626 15.1488 14.2862 15.7252 13.5759 15.7252H12.718C12.0077 15.7252 11.4313 15.1488 11.4313 14.4385V12.4869L12.7073 11.2109C13.2944 10.6238 13.2944 9.67485 12.7073 9.08778L10.9917 7.37213ZM6.71326 8.43369V9.29151H9.28674V8.43369C9.28674 8.17366 9.44222 7.93776 9.68348 7.83857C9.92474 7.73938 10.2009 7.793 10.3858 7.97797L12.1015 9.69362C12.3535 9.9456 12.3535 10.3531 12.1015 10.6024L10.3858 12.318C10.2009 12.503 9.92474 12.5566 9.68348 12.4574C9.44222 12.3582 9.28674 12.1223 9.28674 11.8623V11.0072H6.71326V11.865C6.71326 12.125 6.55778 12.3609 6.31652 12.4601C6.07526 12.5593 5.79914 12.5057 5.61417 12.3207L3.89853 10.6051C3.64654 10.3531 3.64654 9.9456 3.89853 9.6963L5.61417 7.98065C5.79914 7.79568 6.07526 7.74206 6.31652 7.84125C6.55778 7.94044 6.71326 8.17634 6.71326 8.43637V8.43369Z" fill="#6E6CFF"/>
</g>
<defs>
<clipPath id="clip0_111_213">
<rect width="16" height="16" fill="white"/>
</clipPath>
</defs>
</svg>

<svg width="16" height="16" fill="none" xmlns="http://www.w3.org/2000/svg"><g clip-path="url(#a)"><path d="M4.569 3.716c0 .946-.77 1.715-1.716 1.715s-1.716-.77-1.716-1.715c0-.947.77-1.716 1.716-1.716s1.716.77 1.716 1.716zM.116 8.256A2.143 2.143 0 0 1 2.253 6.29h1.2c.724 0 1.368.36 1.756.914-.072.051-.139.107-.2.17L3.292 9.087a1.5 1.5 0 0 0 0 2.123l1.276 1.276v1.951c0 .71-.577 1.287-1.287 1.287h-.858c-.71 0-1.287-.576-1.287-1.287v-3.101a1.715 1.715 0 0 1-1.13-1.759l.11-1.321zm14.747-4.54c0 .946-.77 1.715-1.716 1.715s-1.716-.77-1.716-1.715c0-.947.77-1.716 1.716-1.716s1.716.77 1.716 1.716zm-3.871 3.656a1.724 1.724 0 0 0-.201-.169 2.144 2.144 0 0 1 1.755-.914h1.201c1.116 0 2.046.855 2.137 1.968l.11 1.321a1.715 1.715 0 0 1-1.131 1.759v3.101c0 .71-.577 1.287-1.287 1.287h-.858c-.71 0-1.287-.576-1.287-1.287v-1.951l1.276-1.276a1.5 1.5 0 0 0 0-2.123l-1.715-1.716zM6.713 8.434v.858h2.574v-.858a.642.642 0 0 1 1.099-.456l1.716 1.716a.64.64 0 0 1 0 .908l-1.716 1.716a.644.644 0 0 1-1.1-.456v-.855H6.714v.858a.642.642 0 0 1-1.099.456L3.9 10.605a.64.64 0 0 1 0-.909l1.715-1.715a.644.644 0 0 1 1.1.455v-.002z" fill="#6E6CFF"/></g><defs><clipPath id="a"><path fill="#fff" d="M0 0h16v16H0z"/></clipPath></defs></svg>
